X: 182
U: p=!crescendo(!
U: P=!crescendo)!
U: Q=!diminuendo(!
U: q=!diminuendo)!
M: 6/8
L: 1/8
K: E
!p![| B2 G (FG) F | E3 B,2z | E2 E p(EG)P QF | F6q |
!mf!G2 G G2 c | ^B3 G3 | G2 G (ed) c | ^B6 |
c2 B c2 B | (B2 e) G3 | !p!(F^E) F A2 G | QE3- qEzz |]


